report_00007_2020-12-11T15:55:29.892Z/bootup-time/comparison/line/7_vs_8.svg

<svg width="640" height="500" xmlns="http://www.w3.org/2000/svg" xmlns:xlink="http://www.w3.org/1999/xlink"><path fill="#fff" d="M0 0h640v500H0z"/><defs><path id="d" stroke-width=".222" stroke="currentColor" d="M-1-1h2v2h-2z"/><path id="b" stroke-width=".222" stroke="currentColor" d="M0-1.33l-1.33 2h2.66z"/><path id="f" stroke-width=".222" stroke="currentColor" d="M0 1.33L1.265.411.782-1.067l-1.564-.009-.483 1.487z"/><use xlink:href="#b" id="c" stroke="currentColor" transform="rotate(180)"/><use xlink:href="#d" id="e" stroke="currentColor" transform="rotate(45)"/><circle id="a" stroke-width=".222" stroke="currentColor" cx="0" cy="0" r="1"/></defs><g fill="none" color="#000" stroke="currentColor"><path stroke="#000" d="M45.6 392h9m560.4 0h-9"/><text transform="translate(37.3 395.9)" stroke="none" fill="#000" font-family="Arial" font-size="12" text-anchor="end"><tspan>38</tspan></text></g><g fill="none" color="#000" stroke="currentColor"><path stroke="#000" d="M45.6 340h9m560.4 0h-9"/><text transform="translate(37.3 343.9)" stroke="none" fill="#000" font-family="Arial" font-size="12" text-anchor="end"><tspan>40</tspan></text></g><g fill="none" color="#000" stroke="currentColor"><path stroke="#000" d="M45.6 288.1h9m560.4 0h-9"/><text transform="translate(37.3 292)" stroke="none" fill="#000" font-family="Arial" font-size="12" text-anchor="end"><tspan>42</tspan></text></g><g fill="none" color="#000" stroke="currentColor"><path stroke="#000" d="M45.6 236.2h9m560.4 0h-9"/><text transform="translate(37.3 240.1)" stroke="none" fill="#000" font-family="Arial" font-size="12" text-anchor="end"><tspan>44</tspan></text></g><g fill="none" color="#000" stroke="currentColor"><path stroke="#000" d="M45.6 184.3h9m560.4 0h-9"/><text transform="translate(37.3 188.2)" stroke="none" fill="#000" font-family="Arial" font-size="12" text-anchor="end"><tspan>46</tspan></text></g><g fill="none" color="#000" stroke="currentColor"><path stroke="#000" d="M45.6 132.3h9m560.4 0h-9"/><text transform="translate(37.3 136.2)" stroke="none" fill="#000" font-family="Arial" font-size="12" text-anchor="end"><tspan>48</tspan></text></g><g fill="none" color="#000" stroke="currentColor"><path stroke="#000" d="M45.6 80.4h9m560.4 0h-9"/><text transform="translate(37.3 84.3)" stroke="none" fill="#000" font-family="Arial" font-size="12" text-anchor="end"><tspan>50</tspan></text></g><g fill="none" color="#000" stroke="currentColor"><path stroke="#000" d="M45.6 28.5h9m560.4 0h-9"/><text transform="translate(37.3 32.4)" stroke="none" fill="#000" font-family="Arial" font-size="12" text-anchor="end"><tspan>52</tspan></text></g><g fill="none" color="#000" stroke="currentColor"><path stroke="#000" d="M45.6 428v-9m0-400.9v9"/><text transform="translate(45.6 449.9)" stroke="none" fill="#000" font-family="Arial" font-size="12" text-anchor="middle"><tspan>0</tspan></text></g><g fill="none" color="#000" stroke="currentColor"><path stroke="#000" d="M103.1 428v-9m0-400.9v9"/><text transform="translate(103.1 449.9)" stroke="none" fill="#000" font-family="Arial" font-size="12" text-anchor="middle"><tspan>10</tspan></text></g><g fill="none" color="#000" stroke="currentColor"><path stroke="#000" d="M160.6 428v-9m0-400.9v9"/><text transform="translate(160.6 449.9)" stroke="none" fill="#000" font-family="Arial" font-size="12" text-anchor="middle"><tspan>20</tspan></text></g><g fill="none" color="#000" stroke="currentColor"><path stroke="#000" d="M218.1 428v-9m0-400.9v9"/><text transform="translate(218.1 449.9)" stroke="none" fill="#000" font-family="Arial" font-size="12" text-anchor="middle"><tspan>30</tspan></text></g><g fill="none" color="#000" stroke="currentColor"><path stroke="#000" d="M275.7 428v-9m0-400.9v9"/><text transform="translate(275.7 449.9)" stroke="none" fill="#000" font-family="Arial" font-size="12" text-anchor="middle"><tspan>40</tspan></text></g><g fill="none" color="#000" stroke="currentColor"><path stroke="#000" d="M333.2 428v-9m0-400.9v9"/><text transform="translate(333.2 449.9)" stroke="none" fill="#000" font-family="Arial" font-size="12" text-anchor="middle"><tspan>50</tspan></text></g><g fill="none" color="#000" stroke="currentColor"><path stroke="#000" d="M390.7 428v-9m0-400.9v9"/><text transform="translate(390.7 449.9)" stroke="none" fill="#000" font-family="Arial" font-size="12" text-anchor="middle"><tspan>60</tspan></text></g><g fill="none" color="#000" stroke="currentColor"><path stroke="#000" d="M448.2 428v-9m0-400.9v9"/><text transform="translate(448.2 449.9)" stroke="none" fill="#000" font-family="Arial" font-size="12" text-anchor="middle"><tspan>70</tspan></text></g><g fill="none" color="#000" stroke="currentColor"><path stroke="#000" d="M505.7 428v-9m0-400.9v9"/><text transform="translate(505.7 449.9)" stroke="none" fill="#000" font-family="Arial" font-size="12" text-anchor="middle"><tspan>80</tspan></text></g><g fill="none" color="#000" stroke="currentColor"><path stroke="#000" d="M563.2 428v-9m0-400.9v9"/><text transform="translate(563.2 449.9)" stroke="none" fill="#000" font-family="Arial" font-size="12" text-anchor="middle"><tspan>90</tspan></text></g><path stroke="#000" d="M45.6 18.1V428H615V18.1H45.6z" fill="none" color="#000"/><text transform="translate(271.5 467.9)" stroke="none" fill="#000" font-family="Arial" font-size="12" text-anchor="end" color="#000"><tspan>pages+cached+noexternal+nosvg</tspan></text><path stroke="#9400D3" d="M279.8 464H322M45.6 361.9l5.8-9.6 5.7-27.9 5.8 15.1 5.7 63.2 5.8-49.7 5.7 31.2 5.8-14.3 5.7 11.8 5.8-4.7 5.7 7.4L108.9 26l5.7 349.1 5.8-1.1 5.7-31.9 5.8-1.2 5.7 23.8 5.8 11.5 5.7 8 5.8 9.1 5.7-6.6 5.8-11.7 5.7 22.9 5.8-53.3 5.7 48.8 5.8-23 5.7-26.3 5.8 26.7 5.7 7.8 5.8 41.5 5.7-19.3 5.8-21.4 5.7-21.9 5.8 3.5 5.8 33.6 5.7-42.5 5.8-33.7 5.7 11.6 5.8 46.6 5.7 22 5.8-44.3 5.7-18.4 5.8 46.5 5.7 8.4 5.8 5.4 5.7-3.2 5.8-30.9 5.7-10.4 5.8 25.2 5.7-23.9 5.8 19 5.7-71.7 5.8 86.2 5.7-17.3 5.8 11.1 5.7-82.1 5.8 65 5.7 4.5 5.8-23.2 5.7 22.2 5.8-28.1 5.7 63.6 5.8-41.8 5.7-16.5 5.8 16.9 5.7 7.2 5.8 9.4 5.8-59.1 5.7 56.3 5.8-46.1 5.7 55.6 5.8-3.4 5.7 20.7 5.8-62.3 5.7 34.6 5.8-6.5 5.7 16.8 5.8.8 5.7-14.3L500 360l5.7-20.3 5.8 22.6 5.7 5.4 5.8 6.6 5.7-19.1 5.8 26.1 5.7-.5 5.8-22.7 5.7.4 5.8 47.4 5.7-35.9 5.8 17.9 5.7-37.4 5.8 28.2 5.7 18.7 5.8-59.3 5.7 40.2 5.8 2.1 5.7-14.7 5.8-3.3" fill="none" color="#000"/><text transform="translate(271.5 485.9)" stroke="none" fill="#000" font-family="Arial" font-size="12" text-anchor="end" color="#000"><tspan>pages+cached+noexternal+noimg</tspan></text><path stroke="#009E73" d="M279.8 482H322M45.6 204.4l5.8 55.2 5.7-40.7 5.8 2.6 5.7 31.3 5.8-28.9 5.7 33.7 5.8 6.9 5.7-1.5 5.8-19.4 5.7-12.2 5.8 8.7 5.7 4.7 5.8-53.7 5.7-2.3 5.8-29.8 5.7 47 5.8 14.6 5.7 38 5.8 1 5.7-23.9 5.8 55 5.7-96.4 5.8-7.1 5.7 34.1 5.8-13.5 5.7 9.8 5.8 14.1 5.7 24 5.8-33.9 5.7 24.2 5.8-46.2h5.7l5.8 34.2 5.8 10.6 5.7 36.8 5.8-36.5 5.7-7.9 5.8-15.9 5.7 5.1 5.8 30.8 5.7-52.7 5.8 23.1 5.7 28.5 5.8-56.4 5.7 27.3 5.8-9.3 5.7 23.3 5.8 18.1 5.7-12.8 5.8-37 5.7 18.2 5.8 22 5.7-25.1 5.8 122.5 5.7-169.7 5.8 50 5.7 28.2 5.8-23.4 5.7 15.8 5.8 3 5.7-65.1 5.8 78.7 5.7-32.6 5.8 36.2 5.7-80.9 5.8 87.1 5.8-13.4 5.7-18.8 5.8-16.4 5.7-17.6 5.8-29.9 5.7 45.6 5.8 10.8 5.7-27.1 5.8 37.1 5.7-121.6 5.8 151.8 5.7-10.5 5.8-31.3 5.7 8.9 5.8-21.6 5.7 15.4 5.8-70.2 5.7 45.6 5.8 29.4 5.7-40.3 5.8 41.6 5.7 25.4 5.8-34.7 5.7-40.2 5.8 29.9 5.7 9.5 5.8-13.6 5.7 19.7 5.8-37 5.7 57.3 5.8-83.5 5.7 70.6 5.8 1.5" fill="none" color="#000"/><text transform="translate(571 467.9)" stroke="none" fill="#000" font-family="Arial" font-size="12" text-anchor="end" color="#000"><tspan>score p10=1282</tspan></text><path stroke="#56B4E9" d="M579.3 464h42.2" fill="none" color="#000"/><g><text transform="translate(571 485.9)" stroke="none" fill="#000" font-family="Arial" font-size="12" text-anchor="end" color="#000"><tspan>score median=3500</tspan></text><path stroke="#E69F00" d="M579.3 482h42.2" fill="none" color="#000"/></g><g fill="none" color="#000" stroke="currentColor"><path stroke="#000" d="M45.6 18.1V428H615V18.1H45.6z"/></g></svg>

<?xml version="1.0" encoding="utf-8"  standalone="no"?>
<svg 
 width="640" height="500"
 viewBox="0 0 640 500"
 xmlns="http://www.w3.org/2000/svg"
 xmlns:xlink="http://www.w3.org/1999/xlink"
>

<title>Gnuplot</title>
<desc>Produced by GNUPLOT 5.4 patchlevel 0 </desc>

<g id="gnuplot_canvas">

<rect x="0" y="0" width="640" height="500" fill="#ffffff"/>
<defs>

	<circle id='gpDot' r='0.5' stroke-width='0.5' stroke='currentColor'/>
	<path id='gpPt0' stroke-width='0.222' stroke='currentColor' d='M-1,0 h2 M0,-1 v2'/>
	<path id='gpPt1' stroke-width='0.222' stroke='currentColor' d='M-1,-1 L1,1 M1,-1 L-1,1'/>
	<path id='gpPt2' stroke-width='0.222' stroke='currentColor' d='M-1,0 L1,0 M0,-1 L0,1 M-1,-1 L1,1 M-1,1 L1,-1'/>
	<rect id='gpPt3' stroke-width='0.222' stroke='currentColor' x='-1' y='-1' width='2' height='2'/>
	<rect id='gpPt4' stroke-width='0.222' stroke='currentColor' fill='currentColor' x='-1' y='-1' width='2' height='2'/>
	<circle id='gpPt5' stroke-width='0.222' stroke='currentColor' cx='0' cy='0' r='1'/>
	<use xlink:href='#gpPt5' id='gpPt6' fill='currentColor' stroke='none'/>
	<path id='gpPt7' stroke-width='0.222' stroke='currentColor' d='M0,-1.33 L-1.33,0.67 L1.33,0.67 z'/>
	<use xlink:href='#gpPt7' id='gpPt8' fill='currentColor' stroke='none'/>
	<use xlink:href='#gpPt7' id='gpPt9' stroke='currentColor' transform='rotate(180)'/>
	<use xlink:href='#gpPt9' id='gpPt10' fill='currentColor' stroke='none'/>
	<use xlink:href='#gpPt3' id='gpPt11' stroke='currentColor' transform='rotate(45)'/>
	<use xlink:href='#gpPt11' id='gpPt12' fill='currentColor' stroke='none'/>
	<path id='gpPt13' stroke-width='0.222' stroke='currentColor' d='M0,1.330 L1.265,0.411 L0.782,-1.067 L-0.782,-1.076 L-1.265,0.411 z'/>
	<use xlink:href='#gpPt13' id='gpPt14' fill='currentColor' stroke='none'/>
	<filter id='textbox' filterUnits='objectBoundingBox' x='0' y='0' height='1' width='1'>
	  <feFlood flood-color='#FFFFFF' flood-opacity='1' result='bgnd'/>
	  <feComposite in='SourceGraphic' in2='bgnd' operator='atop'/>
	</filter>
	<filter id='greybox' filterUnits='objectBoundingBox' x='0' y='0' height='1' width='1'>
	  <feFlood flood-color='lightgrey' flood-opacity='1' result='grey'/>
	  <feComposite in='SourceGraphic' in2='grey' operator='atop'/>
	</filter>
</defs>
<g fill="none" color="#FFFFFF" stroke="black" stroke-width="1.00" stroke-linecap="butt" stroke-linejoin="miter">
</g>
<g fill="none" color="black" stroke="currentColor" stroke-width="1.00" stroke-linecap="butt" stroke-linejoin="miter">
	<path stroke='black'  d='M45.6,392.0 L54.6,392.0 M615.0,392.0 L606.0,392.0  '/>	<g transform="translate(37.3,395.9)" stroke="none" fill="black" font-family="Arial" font-size="12.00"  text-anchor="end">
		<text><tspan font-family="Arial" > 38</tspan></text>
	</g>
</g>
<g fill="none" color="black" stroke="currentColor" stroke-width="1.00" stroke-linecap="butt" stroke-linejoin="miter">
	<path stroke='black'  d='M45.6,340.0 L54.6,340.0 M615.0,340.0 L606.0,340.0  '/>	<g transform="translate(37.3,343.9)" stroke="none" fill="black" font-family="Arial" font-size="12.00"  text-anchor="end">
		<text><tspan font-family="Arial" > 40</tspan></text>
	</g>
</g>
<g fill="none" color="black" stroke="currentColor" stroke-width="1.00" stroke-linecap="butt" stroke-linejoin="miter">
	<path stroke='black'  d='M45.6,288.1 L54.6,288.1 M615.0,288.1 L606.0,288.1  '/>	<g transform="translate(37.3,292.0)" stroke="none" fill="black" font-family="Arial" font-size="12.00"  text-anchor="end">
		<text><tspan font-family="Arial" > 42</tspan></text>
	</g>
</g>
<g fill="none" color="black" stroke="currentColor" stroke-width="1.00" stroke-linecap="butt" stroke-linejoin="miter">
	<path stroke='black'  d='M45.6,236.2 L54.6,236.2 M615.0,236.2 L606.0,236.2  '/>	<g transform="translate(37.3,240.1)" stroke="none" fill="black" font-family="Arial" font-size="12.00"  text-anchor="end">
		<text><tspan font-family="Arial" > 44</tspan></text>
	</g>
</g>
<g fill="none" color="black" stroke="currentColor" stroke-width="1.00" stroke-linecap="butt" stroke-linejoin="miter">
	<path stroke='black'  d='M45.6,184.3 L54.6,184.3 M615.0,184.3 L606.0,184.3  '/>	<g transform="translate(37.3,188.2)" stroke="none" fill="black" font-family="Arial" font-size="12.00"  text-anchor="end">
		<text><tspan font-family="Arial" > 46</tspan></text>
	</g>
</g>
<g fill="none" color="black" stroke="currentColor" stroke-width="1.00" stroke-linecap="butt" stroke-linejoin="miter">
	<path stroke='black'  d='M45.6,132.3 L54.6,132.3 M615.0,132.3 L606.0,132.3  '/>	<g transform="translate(37.3,136.2)" stroke="none" fill="black" font-family="Arial" font-size="12.00"  text-anchor="end">
		<text><tspan font-family="Arial" > 48</tspan></text>
	</g>
</g>
<g fill="none" color="black" stroke="currentColor" stroke-width="1.00" stroke-linecap="butt" stroke-linejoin="miter">
	<path stroke='black'  d='M45.6,80.4 L54.6,80.4 M615.0,80.4 L606.0,80.4  '/>	<g transform="translate(37.3,84.3)" stroke="none" fill="black" font-family="Arial" font-size="12.00"  text-anchor="end">
		<text><tspan font-family="Arial" > 50</tspan></text>
	</g>
</g>
<g fill="none" color="black" stroke="currentColor" stroke-width="1.00" stroke-linecap="butt" stroke-linejoin="miter">
	<path stroke='black'  d='M45.6,28.5 L54.6,28.5 M615.0,28.5 L606.0,28.5  '/>	<g transform="translate(37.3,32.4)" stroke="none" fill="black" font-family="Arial" font-size="12.00"  text-anchor="end">
		<text><tspan font-family="Arial" > 52</tspan></text>
	</g>
</g>
<g fill="none" color="black" stroke="currentColor" stroke-width="1.00" stroke-linecap="butt" stroke-linejoin="miter">
	<path stroke='black'  d='M45.6,428.0 L45.6,419.0 M45.6,18.1 L45.6,27.1  '/>	<g transform="translate(45.6,449.9)" stroke="none" fill="black" font-family="Arial" font-size="12.00"  text-anchor="middle">
		<text><tspan font-family="Arial" > 0</tspan></text>
	</g>
</g>
<g fill="none" color="black" stroke="currentColor" stroke-width="1.00" stroke-linecap="butt" stroke-linejoin="miter">
	<path stroke='black'  d='M103.1,428.0 L103.1,419.0 M103.1,18.1 L103.1,27.1  '/>	<g transform="translate(103.1,449.9)" stroke="none" fill="black" font-family="Arial" font-size="12.00"  text-anchor="middle">
		<text><tspan font-family="Arial" > 10</tspan></text>
	</g>
</g>
<g fill="none" color="black" stroke="currentColor" stroke-width="1.00" stroke-linecap="butt" stroke-linejoin="miter">
	<path stroke='black'  d='M160.6,428.0 L160.6,419.0 M160.6,18.1 L160.6,27.1  '/>	<g transform="translate(160.6,449.9)" stroke="none" fill="black" font-family="Arial" font-size="12.00"  text-anchor="middle">
		<text><tspan font-family="Arial" > 20</tspan></text>
	</g>
</g>
<g fill="none" color="black" stroke="currentColor" stroke-width="1.00" stroke-linecap="butt" stroke-linejoin="miter">
	<path stroke='black'  d='M218.1,428.0 L218.1,419.0 M218.1,18.1 L218.1,27.1  '/>	<g transform="translate(218.1,449.9)" stroke="none" fill="black" font-family="Arial" font-size="12.00"  text-anchor="middle">
		<text><tspan font-family="Arial" > 30</tspan></text>
	</g>
</g>
<g fill="none" color="black" stroke="currentColor" stroke-width="1.00" stroke-linecap="butt" stroke-linejoin="miter">
	<path stroke='black'  d='M275.7,428.0 L275.7,419.0 M275.7,18.1 L275.7,27.1  '/>	<g transform="translate(275.7,449.9)" stroke="none" fill="black" font-family="Arial" font-size="12.00"  text-anchor="middle">
		<text><tspan font-family="Arial" > 40</tspan></text>
	</g>
</g>
<g fill="none" color="black" stroke="currentColor" stroke-width="1.00" stroke-linecap="butt" stroke-linejoin="miter">
	<path stroke='black'  d='M333.2,428.0 L333.2,419.0 M333.2,18.1 L333.2,27.1  '/>	<g transform="translate(333.2,449.9)" stroke="none" fill="black" font-family="Arial" font-size="12.00"  text-anchor="middle">
		<text><tspan font-family="Arial" > 50</tspan></text>
	</g>
</g>
<g fill="none" color="black" stroke="currentColor" stroke-width="1.00" stroke-linecap="butt" stroke-linejoin="miter">
	<path stroke='black'  d='M390.7,428.0 L390.7,419.0 M390.7,18.1 L390.7,27.1  '/>	<g transform="translate(390.7,449.9)" stroke="none" fill="black" font-family="Arial" font-size="12.00"  text-anchor="middle">
		<text><tspan font-family="Arial" > 60</tspan></text>
	</g>
</g>
<g fill="none" color="black" stroke="currentColor" stroke-width="1.00" stroke-linecap="butt" stroke-linejoin="miter">
	<path stroke='black'  d='M448.2,428.0 L448.2,419.0 M448.2,18.1 L448.2,27.1  '/>	<g transform="translate(448.2,449.9)" stroke="none" fill="black" font-family="Arial" font-size="12.00"  text-anchor="middle">
		<text><tspan font-family="Arial" > 70</tspan></text>
	</g>
</g>
<g fill="none" color="black" stroke="currentColor" stroke-width="1.00" stroke-linecap="butt" stroke-linejoin="miter">
	<path stroke='black'  d='M505.7,428.0 L505.7,419.0 M505.7,18.1 L505.7,27.1  '/>	<g transform="translate(505.7,449.9)" stroke="none" fill="black" font-family="Arial" font-size="12.00"  text-anchor="middle">
		<text><tspan font-family="Arial" > 80</tspan></text>
	</g>
</g>
<g fill="none" color="black" stroke="currentColor" stroke-width="1.00" stroke-linecap="butt" stroke-linejoin="miter">
	<path stroke='black'  d='M563.2,428.0 L563.2,419.0 M563.2,18.1 L563.2,27.1  '/>	<g transform="translate(563.2,449.9)" stroke="none" fill="black" font-family="Arial" font-size="12.00"  text-anchor="middle">
		<text><tspan font-family="Arial" > 90</tspan></text>
	</g>
</g>
<g fill="none" color="black" stroke="currentColor" stroke-width="1.00" stroke-linecap="butt" stroke-linejoin="miter">
</g>
<g fill="none" color="black" stroke="currentColor" stroke-width="1.00" stroke-linecap="butt" stroke-linejoin="miter">
	<path stroke='black'  d='M45.6,18.1 L45.6,428.0 L615.0,428.0 L615.0,18.1 L45.6,18.1 Z  '/></g>
<g fill="none" color="black" stroke="currentColor" stroke-width="1.00" stroke-linecap="butt" stroke-linejoin="miter">
</g>
	<g id="gnuplot_plot_1" ><title>pages+cached+noexternal+nosvg</title>
<g fill="none" color="black" stroke="currentColor" stroke-width="1.00" stroke-linecap="butt" stroke-linejoin="miter">
	<g transform="translate(271.5,467.9)" stroke="none" fill="black" font-family="Arial" font-size="12.00"  text-anchor="end">
		<text><tspan font-family="Arial" >pages+cached+noexternal+nosvg</tspan></text>
	</g>
</g>
<g fill="none" color="black" stroke="currentColor" stroke-width="1.00" stroke-linecap="butt" stroke-linejoin="miter">
	<path stroke='rgb(148,   0, 211)'  d='M279.8,464.0 L322.0,464.0 M45.6,361.9 L51.4,352.3 L57.1,324.4 L62.9,339.5 L68.6,402.7 L74.4,353.0
		L80.1,384.2 L85.9,369.9 L91.6,381.7 L97.4,377.0 L103.1,384.4 L108.9,26.0 L114.6,375.1 L120.4,374.0
		L126.1,342.1 L131.9,340.9 L137.6,364.7 L143.4,376.2 L149.1,384.2 L154.9,393.3 L160.6,386.7 L166.4,375.0
		L172.1,397.9 L177.9,344.6 L183.6,393.4 L189.4,370.4 L195.1,344.1 L200.9,370.8 L206.6,378.6 L212.4,420.1
		L218.1,400.8 L223.9,379.4 L229.6,357.5 L235.4,361.0 L241.2,394.6 L246.9,352.1 L252.7,318.4 L258.4,330.0
		L264.2,376.6 L269.9,398.6 L275.7,354.3 L281.4,335.9 L287.2,382.4 L292.9,390.8 L298.7,396.2 L304.4,393.0
		L310.2,362.1 L315.9,351.7 L321.7,376.9 L327.4,353.0 L333.2,372.0 L338.9,300.3 L344.7,386.5 L350.4,369.2
		L356.2,380.3 L361.9,298.2 L367.7,363.2 L373.4,367.7 L379.2,344.5 L384.9,366.7 L390.7,338.6 L396.4,402.2
		L402.2,360.4 L407.9,343.9 L413.7,360.8 L419.4,368.0 L425.2,377.4 L431.0,318.3 L436.7,374.6 L442.5,328.5
		L448.2,384.1 L454.0,380.7 L459.7,401.4 L465.5,339.1 L471.2,373.7 L477.0,367.2 L482.7,384.0 L488.5,384.8
		L494.2,370.5 L500.0,360.0 L505.7,339.7 L511.5,362.3 L517.2,367.7 L523.0,374.3 L528.7,355.2 L534.5,381.3
		L540.2,380.8 L546.0,358.1 L551.7,358.5 L557.5,405.9 L563.2,370.0 L569.0,387.9 L574.7,350.5 L580.5,378.7
		L586.2,397.4 L592.0,338.1 L597.7,378.3 L603.5,380.4 L609.2,365.7 L615.0,362.4  '/></g>
	</g>
	<g id="gnuplot_plot_2" ><title>pages+cached+noexternal+noimg</title>
<g fill="none" color="black" stroke="currentColor" stroke-width="1.00" stroke-linecap="butt" stroke-linejoin="miter">
	<g transform="translate(271.5,485.9)" stroke="none" fill="black" font-family="Arial" font-size="12.00"  text-anchor="end">
		<text><tspan font-family="Arial" >pages+cached+noexternal+noimg</tspan></text>
	</g>
</g>
<g fill="none" color="black" stroke="currentColor" stroke-width="1.00" stroke-linecap="butt" stroke-linejoin="miter">
	<path stroke='rgb(  0, 158, 115)'  d='M279.8,482.0 L322.0,482.0 M45.6,204.4 L51.4,259.6 L57.1,218.9 L62.9,221.5 L68.6,252.8 L74.4,223.9
		L80.1,257.6 L85.9,264.5 L91.6,263.0 L97.4,243.6 L103.1,231.4 L108.9,240.1 L114.6,244.8 L120.4,191.1
		L126.1,188.8 L131.9,159.0 L137.6,206.0 L143.4,220.6 L149.1,258.6 L154.9,259.6 L160.6,235.7 L166.4,290.7
		L172.1,194.3 L177.9,187.2 L183.6,221.3 L189.4,207.8 L195.1,217.6 L200.9,231.7 L206.6,255.7 L212.4,221.8
		L218.1,246.0 L223.9,199.8 L229.6,199.8 L235.4,234.0 L241.2,244.6 L246.9,281.4 L252.7,244.9 L258.4,237.0
		L264.2,221.1 L269.9,226.2 L275.7,257.0 L281.4,204.3 L287.2,227.4 L292.9,255.9 L298.7,199.5 L304.4,226.8
		L310.2,217.5 L315.9,240.8 L321.7,258.9 L327.4,246.1 L333.2,209.1 L338.9,227.3 L344.7,249.3 L350.4,224.2
		L356.2,346.7 L361.9,177.0 L367.7,227.0 L373.4,255.2 L379.2,231.8 L384.9,247.6 L390.7,250.6 L396.4,185.5
		L402.2,264.2 L407.9,231.6 L413.7,267.8 L419.4,186.9 L425.2,274.0 L431.0,260.6 L436.7,241.8 L442.5,225.4
		L448.2,207.8 L454.0,177.9 L459.7,223.5 L465.5,234.3 L471.2,207.2 L477.0,244.3 L482.7,122.7 L488.5,274.5
		L494.2,264.0 L500.0,232.7 L505.7,241.6 L511.5,220.0 L517.2,235.4 L523.0,165.2 L528.7,210.8 L534.5,240.2
		L540.2,199.9 L546.0,241.5 L551.7,266.9 L557.5,232.2 L563.2,192.0 L569.0,221.9 L574.7,231.4 L580.5,217.8
		L586.2,237.5 L592.0,200.5 L597.7,257.8 L603.5,174.3 L609.2,244.9 L615.0,246.4  '/></g>
	</g>
	<g id="gnuplot_plot_3" ><title>score p10=1282</title>
<g fill="none" color="black" stroke="currentColor" stroke-width="1.00" stroke-linecap="butt" stroke-linejoin="miter">
	<g transform="translate(571.0,467.9)" stroke="none" fill="black" font-family="Arial" font-size="12.00"  text-anchor="end">
		<text><tspan font-family="Arial" >score p10=1282</tspan></text>
	</g>
</g>
<g fill="none" color="black" stroke="currentColor" stroke-width="1.00" stroke-linecap="butt" stroke-linejoin="miter">
	<path stroke='rgb( 86, 180, 233)'  d='M579.3,464.0 L621.5,464.0  '/></g>
	</g>
	<g id="gnuplot_plot_4" ><title>score median=3500</title>
<g fill="none" color="black" stroke="currentColor" stroke-width="1.00" stroke-linecap="butt" stroke-linejoin="miter">
	<g transform="translate(571.0,485.9)" stroke="none" fill="black" font-family="Arial" font-size="12.00"  text-anchor="end">
		<text><tspan font-family="Arial" >score median=3500</tspan></text>
	</g>
</g>
<g fill="none" color="black" stroke="currentColor" stroke-width="1.00" stroke-linecap="butt" stroke-linejoin="miter">
	<path stroke='rgb(230, 159,   0)'  d='M579.3,482.0 L621.5,482.0  '/></g>
	</g>
<g fill="none" color="#FFFFFF" stroke="rgb(230, 159,   0)" stroke-width="2.00" stroke-linecap="butt" stroke-linejoin="miter">
</g>
<g fill="none" color="black" stroke="currentColor" stroke-width="2.00" stroke-linecap="butt" stroke-linejoin="miter">
</g>
<g fill="none" color="black" stroke="black" stroke-width="1.00" stroke-linecap="butt" stroke-linejoin="miter">
</g>
<g fill="none" color="black" stroke="currentColor" stroke-width="1.00" stroke-linecap="butt" stroke-linejoin="miter">
	<path stroke='black'  d='M45.6,18.1 L45.6,428.0 L615.0,428.0 L615.0,18.1 L45.6,18.1 Z  '/></g>
<g fill="none" color="black" stroke="currentColor" stroke-width="1.00" stroke-linecap="butt" stroke-linejoin="miter">
</g>
</g>
</svg>
